X: 1813
T: Sâzın Al Âguşa
C: Ahmet Avni Konuk
O: Turkey
F: http://compmusic.upf.edu/node/140
N: huzzam--kupe--darb--sazin--ahmet_avni_konuk
N: makam= huzzam
N: form= kupe
N: usul= darb = 6/4
M: 6/4
L: 1/16
K: C _1/4B _3/4e ^3/4f 
Q: 1/4=84
%%MIDI tuningsystem comma53
d2c2 B2c2 d14z2  | e8 e4 f4 e4 d4  | \
w:  Sâ *  *  *  zın   |  al  â  | 
d4 c2B2 B2c2 d2e2 f4 e2d2  | 
w:  gû *  *  şa   | 
d2c2 c2B2 B14z2  | B6f2 f8 f2e2 d4  | \
w:  mız *  *  *  râ  |  bın  *  i  | 
g6_b2 a2g2 f2e2 f2e2 d4  | 
w:  le  *  del   | 
d2e2 f2g2 a4 g8 g2f2  | f2e2 {f}e2d2 d14z2  | \
w:  sî *  *  *  ne  |  mi    | 
d6f2 f14z2  | g8 ^3/4a4 g2a2 b6z2  | 
w:  Nağ *  me   |  i  Hüz  | 
c'6b2 b4 b2^3/4a2 a4 a2g2  | g6b2 ^3/4a2g2 f2e2 f2e2 d4  | \
w:  zam  *  i  |  le  *  def   | 
d2c2 B2c2 d14z2  | 
w:  ey *  *  *  le   | 
e8 e4 f4 e4 d4  | d4 c2B2 B2c2 d2e2 f4 e2d2  | \
w:  gön lün  |  den  *  *  ga  | 
d2c2 {d}c2B2 B14z2  | 
w:  mı    | 
|


